img/image/features2.svg

<svg width="70" height="76" viewBox="0 0 70 76" fill="none" xmlns="http://www.w3.org/2000/svg">
<g opacity="0.8">
<path d="M2.76318 42.7855V62.2717C2.76318 68.1961 7.11807 73 12.4887 73C17.8606 73 22.2142 68.1961 22.2142 62.2717V32.3448H2.76318V38.4924" stroke="#E5EEF7" stroke-width="2" stroke-miterlimit="10" stroke-linecap="round" stroke-linejoin="round"/>
<path d="M22.2144 32.3445V9.49256C22.2144 9.49256 23.2898 5.56012 27.8431 3.00003C32.3952 5.56012 33.4706 9.49256 33.4706 9.49256C33.4706 9.49256 34.5448 5.56012 39.0981 3.00003C43.6515 5.56012 44.7256 9.49256 44.7256 9.49256C44.7256 9.49256 45.7998 5.56012 50.3531 3.00003C54.9065 5.56012 55.9819 9.49256 55.9819 9.49256C55.9819 9.49256 57.056 5.56012 61.6094 3.00003C63.8861 4.27936 65.2936 5.90356 66.1303 7.20579C66.9684 8.50945 67.2369 9.49256 67.2369 9.49256V14.68" stroke="#E5EEF7" stroke-width="2" stroke-miterlimit="10" stroke-linecap="round" stroke-linejoin="round"/>
<path d="M67.2368 18.9734V62.2717C67.2368 68.1961 62.882 73 57.5113 73H12.4888" stroke="#E5EEF7" stroke-width="2" stroke-miterlimit="10" stroke-linecap="round" stroke-linejoin="round"/>
<path d="M28.3335 38H31.5455" stroke="#E5EEF7" stroke-width="2" stroke-miterlimit="10" stroke-linecap="round" stroke-linejoin="round"/>
<path d="M35.7566 38H61.2992" stroke="#E5EEF7" stroke-width="2" stroke-miterlimit="10" stroke-linecap="round" stroke-linejoin="round"/>
<path d="M28.3335 44.1775H31.5455" stroke="#E5EEF7" stroke-width="2" stroke-miterlimit="10" stroke-linecap="round" stroke-linejoin="round"/>
<path d="M35.7566 44.1775H61.2992" stroke="#E5EEF7" stroke-width="2" stroke-miterlimit="10" stroke-linecap="round" stroke-linejoin="round"/>
<path d="M28.3335 57.0195H31.5455" stroke="#E5EEF7" stroke-width="2" stroke-miterlimit="10" stroke-linecap="round" stroke-linejoin="round"/>
<path d="M35.7566 57.0195H61.2992" stroke="#E5EEF7" stroke-width="2" stroke-miterlimit="10" stroke-linecap="round" stroke-linejoin="round"/>
<path d="M28.3335 63.0767H31.5455" stroke="#E5EEF7" stroke-width="2" stroke-miterlimit="10" stroke-linecap="round" stroke-linejoin="round"/>
<path d="M35.7566 63.0767H61.2992" stroke="#E5EEF7" stroke-width="2" stroke-miterlimit="10" stroke-linecap="round" stroke-linejoin="round"/>
</g>
</svg>

<svg width="70" height="76" fill="none" xmlns="http://www.w3.org/2000/svg"><g opacity=".8" stroke="#E5EEF7" stroke-width="2" stroke-miterlimit="10" stroke-linecap="round" stroke-linejoin="round"><path d="M2.763 42.785v19.487C2.763 68.196 7.118 73 12.49 73c5.372 0 9.725-4.804 9.725-10.728V32.345H2.764v6.147M22.214 32.344V9.493S23.29 5.56 27.844 3c4.551 2.56 5.627 6.493 5.627 6.493S34.545 5.56 39.098 3c4.553 2.56 5.628 6.493 5.628 6.493S45.8 5.56 50.353 3c4.553 2.56 5.629 6.493 5.629 6.493S57.056 5.56 61.609 3c2.277 1.28 3.685 2.904 4.521 4.206.838 1.303 1.107 2.287 1.107 2.287v5.187"/><path d="M67.237 18.973v43.299C67.237 68.196 62.882 73 57.51 73H12.49M28.334 38h3.212M35.757 38h25.542M28.334 44.178h3.212M35.757 44.178h25.542M28.334 57.02h3.212M35.757 57.02h25.542M28.334 63.077h3.212M35.757 63.077h25.542"/></g></svg>
